X: 1708
T: Mick Pilley's Barn Dance
C:S.R. Henry, published 1909
B: australian traditional tunes wiki
M:6/8
L:1/8
R: Barn Dance
Q: 3/8=100
K:D
V:1 
DEF|"G"G2FG2B|de4=f|"D7"[F2f2]=f[E2e2]^d|[D6d6]|B3A3|d3-d2B|"G"A3G3|D3DEF|
G2FG2B|d3e2=f|"D7"f2fe2^d|d3dcd|"A7"eeee2e|fff fe^d|"D7"d2ed2e|d2=cB2A|
"G"G2FG2B|d3ede|"D7"f2fe2e|d3d3|B3A3|d3-d2B|"G"A3G3|D3-DD^D|
"C"E2^DE2G|"Em"B3E3|"Am"A2^GA2=c|"E"e3e2^d|"D7"ddd d2e|B3A3|"G"G6-|G3Bde|
"D7"ffff2e|ffff2e|f2ef2e|f2ed2^d|"Em"e3e3|e2dB2d|e3e3|e2e dBG|
"D7"F3d3|d2cd2e|d3d3|d2=c BAF|"G"G3d3|d2cd2e|d3d3|d2cd2e|
"D7"ffff2e|ffff2e|f2ef2e|f2ed2^d|"Em"e3e3|e2dB2d|e6-|e3z2d|
"C"eeee2=c|"G"d2BA2G|dddd2B|"Am"=c2BA3|"D7"B2=cd2e|B3A3|"G"G6|G6|
"G"D3-D2C|D3-D2G|B6-|B3GFG|"Am"A6|A2^GA2B|E6-|E3-E2=F|
"D7"F3-F2E|F3-F2G|A3A3|A3-A2F|"G"G3-G2F|G2FG2B|d3-d2B|"D7"=c2BG2E|
"G"D3D2C|D3D2G|B3B3|B3GFG|"Am"A3-A2^G|A2GA2=c|E6|E3E2F|
"C"G2FE3|G3G2A|"G"B2AG2A|B2AG2B|"D7"d3d2B|=c2BA2B|"G"G6||
% abcbook-tune_id 6342d53a87a988134d2b6ef8


% abcbook-boost 0
% abcbook-tablature 
% abcbook-transpose 
% abcbook-lastupdated 1665324379142
% abcbook-soundfonts 
% abcbook-repeats 1
% NFF Book 2010

